!!!SOCIAL_FUNCTION:	dream songs
!!!PDT:	1909
!!!OTL: No_119_Song_of_the_Crows.krn
!!!REG: Great_Lakes
!!!LANG: Non-Tone
!!!LING_GROUP: Algonquin
**kern	**kern
*staff2	*staff1
=1-	=1-
*clefF4	*clefF4
*k[b-e-]	*k[b-e-]
*M2/4	*M2/4
2r	8B-\L
.	8B-\J
.	8B-\L
.	8B-\J
=2	=2
12GG/	4B-\
12r	.
12GG/	.
12GG/	4B-\
12r	.
12GG/	.
=3||	=3||
*M3/4	*M3/4
2.r	8c\L
.	8c\J
.	[4B-\
.	8.B-\L]
.	16G\Jk
=4	=4
2.r	8G\L
.	8F\J
.	8F\L
.	[8F\J
.	4F\]
=5||	=5||
*M2/4	*M2/4
2r	8G\L
.	8F\J
.	8G\L
.	8F\J
=6	=6
2r	4F\
.	4F\
=7	=7
2r	8F\L
.	8F\J
.	8D/L
.	8C/J
=8	=8
2r	2BB-/
==	==
*-	*-
